styles/twemoji/1f396.svg

<?xml version="1.0" encoding="UTF-8" standalone="no"?><svg xmlns:dc="http://purl.org/dc/elements/1.1/" xmlns:cc="http://creativecommons.org/ns#" xmlns:rdf="http://www.w3.org/1999/02/22-rdf-syntax-ns#" xmlns:svg="http://www.w3.org/2000/svg" xmlns="http://www.w3.org/2000/svg" viewBox="0 0 45 45" style="enable-background:new 0 0 45 45;" xml:space="preserve" version="1.1" id="svg2"><metadata id="metadata8"><rdf:RDF><cc:Work rdf:about=""><dc:format>image/svg+xml</dc:format><dc:type rdf:resource="http://purl.org/dc/dcmitype/StillImage"/></cc:Work></rdf:RDF></metadata><defs id="defs6"><clipPath id="clipPath16" clipPathUnits="userSpaceOnUse"><path id="path18" d="M 0,36 36,36 36,0 0,0 0,36 Z"/></clipPath><clipPath id="clipPath28" clipPathUnits="userSpaceOnUse"><path id="path30" d="M 11,36 C 9.896,36 9,35.105 9,34 l 0,0 0,-11 c 0,0 0,-1 1,-2 l 0,0 7,-5.444 L 17,15 c 0,-0.104 -0.104,-1 1,-1 l 0,0 c 1.104,0 1,0.896 1,1 l 0,0 0,0.556 7,5.444 c 1,1 1,2 1,2 l 0,0 0,11 c 0,1.105 -0.895,2 -2,2 l 0,0 -14,0 z"/></clipPath><clipPath id="clipPath40" clipPathUnits="userSpaceOnUse"><path id="path42" d="M 0,36 36,36 36,0 0,0 0,36 Z"/></clipPath></defs><g transform="matrix(1.25,0,0,-1.25,0,45)" id="g10"><g id="g12"><g clip-path="url(#clipPath16)" id="g14"><g transform="translate(25,36)" id="g20"><path id="path22" style="fill:#55acee;fill-opacity:1;fill-rule:nonzero;stroke:none" d="m 0,0 -7,0 -7,0 c -1.104,0 -2,-0.896 -2,-2 l 0,-11 c 0,0 0,-1 1,-2 l 7,-5.444 0,-0.556 c 0,-0.104 -0.104,-1 1,-1 1.105,0 1,0.896 1,1 l 0,0.556 7,5.444 c 1,1 1,2 1,2 L 2,-2 C 2,-0.896 1.105,0 0,0"/></g></g></g><g id="g24"><g clip-path="url(#clipPath28)" id="g26"><path id="path32" style="fill:#e1e8ed;fill-opacity:1;fill-rule:nonzero;stroke:none" d="m 24,16 -12,0 0,20 12,0 0,-20 z"/><path id="path34" style="fill:#dd2e44;fill-opacity:1;fill-rule:nonzero;stroke:none" d="m 22,16 -8,0 0,20 8,0 0,-20 z"/></g></g><g id="g36"><g clip-path="url(#clipPath40)" id="g38"><g transform="translate(22,15.5)" id="g44"><path id="path46" style="fill:#ffac33;fill-opacity:1;fill-rule:nonzero;stroke:none" d="m 0,0 c 0,-0.828 -0.672,-1.5 -1.5,-1.5 l -5,0 c -0.829,0 -1.5,0.672 -1.5,1.5 0,0.828 0.671,1.5 1.5,1.5 l 5,0 C -0.672,1.5 0,0.828 0,0"/></g><g transform="translate(26,8)" id="g48"><path id="path50" style="fill:#ffac33;fill-opacity:1;fill-rule:nonzero;stroke:none" d="m 0,0 c 0,-4.418 -3.582,-8 -8,-8 -4.419,0 -8,3.582 -8,8 0,4.418 3.581,8 8,8 4.418,0 8,-3.582 8,-8"/></g><g transform="translate(24,8)" id="g52"><path id="path54" style="fill:#ffd983;fill-opacity:1;fill-rule:nonzero;stroke:none" d="m 0,0 c 0,-3.314 -2.686,-6 -6,-6 -3.314,0 -6,2.686 -6,6 0,3.314 2.686,6 6,6 3.314,0 6,-2.686 6,-6"/></g></g></g></g></svg>

<svg xmlns="http://www.w3.org/2000/svg" viewBox="0 0 45 45"><defs><clipPath id="a"><path d="M0 36h36V0H0v36z"/></clipPath><clipPath id="b"><path d="M11 36a2 2 0 0 1-2-2V23s0-1 1-2l7-5.444V15c0-.104-.104-1 1-1s1 .896 1 1v.556L26 21c1 1 1 2 1 2v11a2 2 0 0 1-2 2H11z"/></clipPath><clipPath id="c"><path d="M0 36h36V0H0v36z"/></clipPath></defs><g clip-path="url(#a)" transform="matrix(1.25 0 0 -1.25 0 45)"><path d="M25 36H11a2 2 0 0 1-2-2V23s0-1 1-2l7-5.444V15c0-.104-.104-1 1-1 1.105 0 1 .896 1 1v.556L26 21c1 1 1 2 1 2v11a2 2 0 0 1-2 2" fill="#55acee"/></g><g clip-path="url(#b)" transform="matrix(1.25 0 0 -1.25 0 45)"><path d="M24 16H12v20h12V16z" fill="#e1e8ed"/><path d="M22 16h-8v20h8V16z" fill="#dd2e44"/></g><g clip-path="url(#c)" transform="matrix(1.25 0 0 -1.25 0 45)"><path d="M22 15.5a1.5 1.5 0 0 0-1.5-1.5h-5a1.5 1.5 0 1 0 0 3h5a1.5 1.5 0 0 0 1.5-1.5" fill="#ffac33"/><path d="M26 8a8 8 0 1 0-16 0 8 8 0 0 0 16 0" fill="#ffac33"/><path d="M24 8a6 6 0 1 0-12 0 6 6 0 0 0 12 0" fill="#ffd983"/></g></svg>
